Papirus/32x32/apps/distributor-logo-absolute.svg

<svg width="32" height="32" version="1.1" xmlns="http://www.w3.org/2000/svg">
 <rect x="4" y="5" width="26" height="26" rx="1.6333333" ry="1.6333333" style="opacity:.2"/>
 <rect x="4" y="4" width="26" height="26" rx="1.6333333" ry="1.6333333" style="fill:#765e4a"/>
 <path d="m7 7c-0.554 0-1 0.446-1 1v1h9v3h-9v7c0 0.554 0.446 1 1 1h11c0.554 0 1-0.446 1-1v-11c0-0.554-0.446-1-1-1zm1 7h7v4h-7zm14 8c-0.554 0-1 0.446-1 1v5c0 0.554 0.446 1 1 1h5c0.554 0 1-0.446 1-1v-5c0-0.554-0.446-1-1-1z" style="opacity:.2"/>
 <path d="m7 6c-0.554 0-1 0.446-1 1v1h9v3h-9v7c0 0.554 0.446 1 1 1h11c0.554 0 1-0.446 1-1v-11c0-0.554-0.446-1-1-1h-11zm1 7h7v4h-7v-4zm14 8c-0.554 0-1 0.446-1 1v5c0 0.554 0.446 1 1 1h5c0.554 0 1-0.446 1-1v-5c0-0.554-0.446-1-1-1h-5z" style="fill:#ffffff"/>
 <path d="M 5.6328125 4 C 4.7279458 4 4 4.7279458 4 5.6328125 L 4 6.6328125 C 4 5.7279458 4.7279458 5 5.6328125 5 L 28.367188 5 C 29.272054 5 30 5.7279458 30 6.6328125 L 30 5.6328125 C 30 4.7279458 29.272054 4 28.367188 4 L 5.6328125 4 z " style="fill:#ffffff;opacity:.2"/>
 <rect x="21" y="3" width="7.0666656" height="16.866669" rx="1.0666656" ry="1" style="opacity:.2"/>
 <rect x="21" y="2" width="7.0666656" height="16.866669" rx="1.0666656" ry="1" style="fill:#b38a48"/>
 <rect x="2" y="22" width="17" height="7.2000008" rx="1" ry="1" style="opacity:.2"/>
 <rect x="2" y="21" width="17" height="7.2000008" rx="1" ry="1" style="fill:#c8a972"/>
 <path d="m22.066406 2c-0.590933 0-1.066406 0.446-1.066406 1v1c0-0.554 0.475473-1 1.066406-1h4.933594c0.590933 0 1.066406 0.446 1.066406 1v-1c0-0.554-0.475473-1-1.066406-1h-4.933594z" style="fill:#ffffff;opacity:.2"/>
 <path d="m3 21c-0.554 0-1 0.446-1 1v1c0-0.554 0.446-1 1-1h15c0.554 0 1 0.446 1 1v-1c0-0.554-0.446-1-1-1h-15z" style="fill:#ffffff;opacity:.2"/>
</svg>

<svg xmlns="http://www.w3.org/2000/svg" width="32" height="32" version="1.1">
 <rect style="opacity:0.2" width="26" height="26" x="4" y="5" rx="1.4" ry="1.4"/>
 <rect style="fill:#765e4a" width="26" height="26" x="4" y="4" rx="1.4" ry="1.4"/>
 <rect style="opacity:0.2" width="7" height="17" x="21" y="3" rx="1" ry="1"/>
 <path style="fill:#ffffff;opacity:0.1" d="M 5.4004 4 C 4.6248 4 4 4.6248 4 5.4004 L 4 6.4004 C 4 5.6248 4.6248 5 5.4004 5 L 28.6 5 C 29.375 5 30 5.6248 30 6.4004 L 30 5.4004 C 30 4.6248 29.375 4 28.6 4 L 5.4004 4 z"/>
 <rect style="fill:#b38a48" width="7" height="17" x="21" y="2" rx="1" ry="1"/>
 <rect style="opacity:0.2" width="17" height="7" x="2" y="22" rx="1" ry="1"/>
 <rect style="fill:#c8a972" width="17" height="7" x="2" y="21" rx="1" ry="1"/>
 <rect style="opacity:0.2" width="7" height="7" x="21" y="22" rx="1" ry="1"/>
 <rect style="fill:#ffffff" width="7" height="7" x="21" y="21" rx="1" ry="1"/>
 <path style="opacity:0.2" d="M 7,7 C 6.446,7 6,7.446 6,8 V 9 H 15 V 12 H 6 V 19 C 6,19.554 6.446,20 7,20 H 18 C 18.554,20 19,19.554 19,19 V 8 C 19,7.446 18.554,7 18,7 Z M 8,14 H 15 V 18 H 8 Z"/>
 <path style="fill:#ffffff" d="M 7,6 C 6.446,6 6,6.446 6,7 V 8 H 15 V 11 H 6 V 18 C 6,18.554 6.446,19 7,19 H 18 C 18.554,19 19,18.554 19,18 V 7 C 19,6.446 18.554,6 18,6 Z M 8,13 H 15 V 17 H 8 Z"/>
 <path style="fill:#ffffff;opacity:0.2" d="M 22 2 C 21.446 2 21 2.446 21 3 L 21 4 C 21 3.446 21.446 3 22 3 L 27 3 C 27.554 3 28 3.446 28 4 L 28 3 C 28 2.446 27.554 2 27 2 L 22 2 z"/>
 <path style="fill:#ffffff;opacity:0.2" d="M 3 21 C 2.446 21 2 21.446 2 22 L 2 23 C 2 22.446 2.446 22 3 22 L 18 22 C 18.554 22 19 22.446 19 23 L 19 22 C 19 21.446 18.554 21 18 21 L 3 21 z"/>
</svg>
